X:1
T:Title
%%score { 1 | 2 }
L:1/8
M:3/4
K:Db
V:1 treble nm="Grand Piano"
V:2 bass 
V:1
 z2 z2[Q:1/4=108] [A,DF]2 | [DFA]2 [A,DF]2 [DGB]2 | [DFA]2 [A,DF]2[K:bass] [F,D]2 | %3
 [G,CE]2 [F,D]2[K:treble] [A,CE]2 | [A,DF]4 [DFA]2 | [DGB]2 [DBd]2 [DGB]2 | [DFA]2 F2 E2 | %7
 D2 E2 F2 | [CE]4 [GA]2 | [FA]2 [DF]2 [GB]2 | [FA]2 [DF]2 [FA]2 | [Fd]2 [Ac]2 [GB]2 | [FA]4 [FA]2 | %13
 [DGB]2 [DBd]2 [DGB]2 | [DFA]2[K:bass] [F,D]2 [=G,DE]2 | [A,DF]2 [A,CF]2[K:bass] [G,CE]2 | %16
[M:2/4] [F,D]4 |[M:1/4][K:treble] [Fd]2 |[M:3/4] [Gc]2 [EG]2 [Gc]2 | [Fd]2 [Fd]2 [Fd]2 | %20
 [Gc]2 [GB]2 [GA]2 | [Fd]4 [DFd]2 | [DBd]2 [DAc]2 [DGB]2 | [DFA]2 [A,DF]2 [A,DF]2 | %24
 [=G,DF]2 [G,DE]2 [G,DE]2 | [A,CE]4 [A,GA]2 | [A,FA]2 [A,DF]2 [DGB]2 | [DFA]2 [A,DF]2 [DFA]2 | %28
 [DFd]2 [DFA]2 [DF=A]2 | [DGB]4 [DGB]2 | [DBd]2 [DAc]2 [DGB]2 | [DFA]2[K:bass] [F,D]2 [=G,DE]2 | %32
 [A,DF]2 [A,CF]2[K:bass] [G,CE]2 |[M:2/4] [F,A,D]4 |] %34
V:2
 z2 z2 D,2 | D,2 D,2 D,2 | D,2 D,2 D,2 | A,,2 B,,2 A,,2 | D,4 D,2 | G,2 G,2 G,2 | %6
 D,2 [D,A,D]2 [D,G,D]2 | [D,F,]2 [D,G,D]2 [D,A,D]2 | [A,,A,]4 [A,,A,]2 | [D,A,]2 [D,A,]2 [D,D]2 | %10
 [D,D]2 [D,A,]2 [D,D]2 | [D,A,]2 [D,D]2 [D,D]2 | [D,D]4 [D,D]2 | G,2 G,2 G,2 | D,2 D,2 B,,2 | %15
 A,,2 A,,2 A,,2 |[M:2/4] D,4 |[M:1/4] [D,A,]2 |[M:3/4] [E,A,]2 [A,,A,]2 [E,A,]2 | %19
 [D,A,]2 [A,,A,]2 [D,A,]2 | [E,A,]2 [A,,A,]2 [E,A,]2 | [D,A,]4 D,2 | G,2 G,2 G,2 | D,2 D,2 D,2 | %24
 B,,2 B,,2 E,2 | A,,4 A,,2 | D,2 D,2 D,2 | D,2 D,2 D,2 | D,2 D,2 D,2 | G,4 G,2 | G,2 G,2 G,2 | %31
 D,2 D,2 B,,2 | A,,2 A,,2 A,,2 |[M:2/4] D,4 |] %34

